X: 11003
T: ABBY'S HORNPIPE
C: Bob McQuillen  15 Apr '01
B: Bob's Note Book 11 #3
R: reel
Z: 2005 John Chambers <jc:trillian.mit.edu>
M: C
L: 1/8
K: D
FE \
| DEFG FEDE | FAde f2ef | gfed cABc | defd AGFE |
| FDFG FEDE | FAde fdcB | ABcd edeg | f2d2 d2  :|
|: de \
| fedf edcB | ABAG FEDE | FDFA dfgf | f2e2 e2de |
| fedf edce | defd AGFE | DFAd cBAG | F2D2 D2  :|
%%begintext align
%% The  McBride  family  is  large  and  far-flung,  with  relatives  living  in
%% Massachusetts,  New  Hampshire,  Missouri,  Nebraska, and Oregon.  Music runs
%% through the whole gang, and Abby McBride of Taunton, MA, for whom  this  tune
%% is written, plays it easily on her penny whistle. I think that's pretty neat,
%% don't you?  I think Abby's pretty neat, too.
%%endtext

%%sep 1 1 500

%%sep 1 1 500

